images/twitter.svg

<svg width="18" height="16" viewBox="0 0 18 16" fill="none" xmlns="http://www.w3.org/2000/svg">
<path d="M16.7855 0.59926L0.840977 6.74776C-0.247172 7.18481 -0.240877 7.79184 0.641333 8.06253L4.73493 9.33953L14.2063 3.3637C14.6542 3.09121 15.0634 3.2378 14.727 3.53636L7.05332 10.4619H7.05152L7.05332 10.4628L6.77094 14.6823C7.18462 14.6823 7.36718 14.4925 7.5992 14.2686L9.58754 12.3351L13.7234 15.39C14.486 15.81 15.0337 15.5941 15.2234 14.6841L17.9384 1.88885C18.2163 0.774623 17.513 0.270117 16.7855 0.59926Z" fill="#83B3D3"/>
</svg>

<svg width="18" height="16" fill="none" xmlns="http://www.w3.org/2000/svg"><path d="M16.785.6.841 6.747c-1.088.437-1.082 1.044-.2 1.315L4.735 9.34l9.471-5.976c.448-.273.857-.126.521.172l-7.674 6.926h-.001.001l-.282 4.22c.414 0 .596-.19.828-.413l1.989-1.934 4.135 3.055c.763.42 1.31.204 1.5-.706L17.938 1.89C18.216.775 17.513.27 16.786.599Z" fill="#83B3D3"/></svg>
